looks/camera.cube
# Phantom look, LogMode=0
# Fitted from PhGetCineImage(UC_VIEW) by camera_bridge/fit_look.py.
# Input domain: ffmpeg's raw linear RGB AFTER the cine's calib matrix.
# Clips: 25628_p1_20260910-184101.cine, 25628_p1_20260910-184740.cine, 25628_p1_20260910-185121.cine, 25628_p1_20260910-185514.cine, 25628_p1_20260910-190001.cine, 25628_p1_20260910-190218.cine, 25628_p1_20260910-191712.cine, 25628_p1_20260910-192058.cine, 25628_p1_20260910-193143.cine, 25628_p1_20260910-193403.cine, 25628_p1_20260910-193602.cine, 25628_p1_20260910-193812.cine, 25628_p1_20260910-194032.cine, 25628_p1_20260910-194340.cine, 25628_p1_20260910-194613.cine, 25628_p1_20260910-194941.cine, 25628_p1_20260910-195259.cine, 25628_p1_20260910-195733.cine, 25628_p1_20260910-195923.cine, 25628_p1_20260910-200148.cine, 25628_p1_20260910-202647.cine, 25628_p1_20260910-204814.cine, 25628_p1_20260910-205531.cine, 25628_p1_20260910-205716.cine
# Residual vs SDK: mean 0.0108, p95 0.0601
LUT_1D_SIZE 256
0.000000 0.002060 0.000343
0.000000 0.002060 0.000343
0.000000 0.002060 0.000343
0.000000 0.002060 0.000343
0.000000 0.002060 0.000343
0.000000 0.002060 0.000343
0.000000 0.002060 0.000343
0.000000 0.002060 0.000343
0.000000 0.002060 0.000343
0.000000 0.002060 0.000343
0.000000 0.002060 0.000343
0.000000 0.002060 0.000343
0.000000 0.002060 0.000343
0.000000 0.002060 0.000343
0.000000 0.002060 0.000343
0.000000 0.012573 0.000343
0.000076 0.028122 0.000343
0.002365 0.049858 0.000343
0.015823 0.067352 0.000343
0.036087 0.067352 0.000343
0.056229 0.067352 0.000343
0.074280 0.067352 0.000343
0.089813 0.067352 0.000343
0.104401 0.067352 0.000343
0.119141 0.067352 0.000343
0.133484 0.082916 0.001144
0.146591 0.098755 0.001144
0.158127 0.113510 0.001144
0.169159 0.127563 0.001144
0.180054 0.140823 0.001144
0.190689 0.152847 0.001144
0.200821 0.164032 0.001144
0.210510 0.174988 0.001144
0.219986 0.185638 0.001144
0.229294 0.195877 0.001144
0.238403 0.205673 0.001144
0.247299 0.215195 0.001144
0.255997 0.224518 0.001144
0.264526 0.233673 0.001144
0.272903 0.242676 0.001144
0.281189 0.251617 0.007111
0.289474 0.260559 0.024399
0.297745 0.269501 0.044678
0.306046 0.278351 0.064026
0.314362 0.287186 0.081406
0.322739 0.295944 0.096832
0.331223 0.304611 0.111099
0.339813 0.313217 0.124741
0.348419 0.321777 0.137802
0.356979 0.330276 0.150223
0.365494 0.338730 0.161987
0.374039 0.347076 0.173141
0.382629 0.355286 0.183807
0.391220 0.363419 0.194016
0.399765 0.371414 0.203751
0.408310 0.379364 0.213104
0.416840 0.387268 0.222244
0.425308 0.395111 0.231155
0.433807 0.402908 0.239868
0.442352 0.410721 0.248352
0.450867 0.418488 0.256622
0.459412 0.426270 0.264633
0.467926 0.434036 0.272400
0.476425 0.441833 0.279922
0.484879 0.449631 0.287354
0.493332 0.457382 0.294647
0.501755 0.465134 0.301865
0.510162 0.472855 0.308929
0.518509 0.480576 0.315918
0.526886 0.488281 0.322693
0.535248 0.495987 0.329254
0.543610 0.503677 0.335632
0.551971 0.511398 0.341843
0.560379 0.519089 0.347931
0.568817 0.526779 0.354019
0.577225 0.534470 0.360031
0.585709 0.542191 0.365936
0.594223 0.549911 0.371735
0.602798 0.557617 0.377396
0.611359 0.565353 0.382904
0.619934 0.573105 0.388412
0.628540 0.580856 0.393906
0.637161 0.588654 0.399429
0.645691 0.596466 0.404984
0.654175 0.604279 0.410507
0.662582 0.612091 0.416092
0.670975 0.619934 0.421616
0.679245 0.627823 0.427185
0.687424 0.635727 0.432755
0.695480 0.643570 0.438400
0.703445 0.651398 0.444061
0.711273 0.659195 0.449707
0.718887 0.666931 0.455292
0.726379 0.674622 0.460800
0.733582 0.682220 0.466293
0.740692 0.689728 0.471725
0.747589 0.697159 0.477127
0.754395 0.704468 0.482590
0.761108 0.711639 0.488007
0.767654 0.718689 0.493378
0.774078 0.725616 0.498764
0.780502 0.732407 0.504166
0.786758 0.739075 0.509583
0.792725 0.745636 0.514999
0.798767 0.752075 0.520432
0.804657 0.758331 0.525833
0.810318 0.764465 0.531265
0.815887 0.770493 0.536667
0.821457 0.776413 0.542053
0.826828 0.782227 0.547440
0.831940 0.787933 0.552826
0.836960 0.793472 0.558228
0.841873 0.798889 0.563614
0.846603 0.804214 0.569107
0.851227 0.809387 0.574585
0.855728 0.814468 0.580078
0.860062 0.819427 0.585571
0.864288 0.824249 0.591080
0.868408 0.828964 0.596588
0.872238 0.833588 0.602127
0.876144 0.838104 0.607666
0.879776 0.842484 0.613190
0.883255 0.846741 0.618759
0.886810 0.850876 0.624268
0.890221 0.854935 0.629745
0.893463 0.858902 0.635208
0.896759 0.862762 0.640656
0.899948 0.866501 0.646133
0.902969 0.870163 0.651535
0.905853 0.873688 0.656998
0.908722 0.877167 0.662354
0.911484 0.880539 0.667755
0.914108 0.883804 0.673111
0.916718 0.886841 0.678482
0.919174 0.889740 0.683823
0.921555 0.892502 0.689087
0.923874 0.895111 0.694336
0.926010 0.897812 0.699493
0.928040 0.900452 0.704590
0.930054 0.903122 0.709610
0.932022 0.905762 0.714600
0.933853 0.908325 0.719498
0.935699 0.910736 0.724365
0.937347 0.913071 0.729111
0.938965 0.915421 0.733841
0.940491 0.917709 0.738464
0.941956 0.919891 0.743057
0.943314 0.922073 0.747574
0.944580 0.924088 0.752045
0.945877 0.926102 0.756454
0.946930 0.927948 0.760788
0.948227 0.929825 0.765030
0.949280 0.931595 0.769226
0.950394 0.933350 0.773361
0.951492 0.935059 0.777451
0.952728 0.936752 0.781494
0.953705 0.938400 0.785492
0.954849 0.939972 0.789429
0.955734 0.941574 0.793320
0.956726 0.943085 0.797150
0.957870 0.944595 0.800903
0.958832 0.945999 0.804550
0.959816 0.947327 0.808151
0.960472 0.948624 0.811707
0.961533 0.949829 0.815216
0.962448 0.950974 0.818710
0.963455 0.952057 0.822159
0.964294 0.953125 0.825546
0.964996 0.954163 0.828873
0.965820 0.955109 0.832138
0.966537 0.956070 0.835312
0.967270 0.956985 0.838409
0.968124 0.957840 0.841446
0.968826 0.958694 0.844452
0.969513 0.959488 0.847458
0.970245 0.960281 0.850403
0.971001 0.961060 0.853363
0.971634 0.961777 0.856247
0.972290 0.962509 0.859039
0.972977 0.963181 0.861755
0.973572 0.963898 0.864426
0.974106 0.964554 0.867035
0.974854 0.965195 0.869629
0.975449 0.965820 0.872177
0.975983 0.966446 0.874664
0.976547 0.966995 0.877136
0.977127 0.967545 0.879501
0.977722 0.968079 0.881897
0.978180 0.968643 0.884201
0.978790 0.969238 0.886444
0.979218 0.969788 0.888641
0.979721 0.970390 0.890793
0.980179 0.970871 0.892899
0.980682 0.971420 0.894989
0.981148 0.971863 0.897034
0.981628 0.972473 0.899017
0.982040 0.972946 0.900986
0.982468 0.973450 0.902908
0.982941 0.973953 0.904785
0.983307 0.974487 0.906631
0.983780 0.974991 0.908447
0.984299 0.975479 0.910187
0.984711 0.975983 0.911957
0.985168 0.976440 0.913620
0.985603 0.976929 0.915253
0.986015 0.977448 0.916809
0.986404 0.977966 0.918365
0.986816 0.978424 0.919952
0.987259 0.978897 0.921448
0.987640 0.979385 0.922913
0.988098 0.979858 0.924423
0.988586 0.980286 0.925766
0.988876 0.980743 0.927185
0.989212 0.981201 0.928467
0.989517 0.981628 0.929794
0.989868 0.982086 0.931091
0.990250 0.982513 0.932388
0.990524 0.982956 0.933609
0.990997 0.983444 0.934769
0.991257 0.983841 0.935959
0.991455 0.984238 0.937103
0.992027 0.984650 0.938309
0.992249 0.985107 0.939407
0.992645 0.985504 0.940414
0.992996 0.985916 0.941467
0.993118 0.986282 0.942520
0.993378 0.986679 0.943497
0.993881 0.987076 0.944519
0.994049 0.987488 0.945374
0.994507 0.987869 0.946396
0.994980 0.988266 0.947311
0.995117 0.988647 0.948196
0.995483 0.988983 0.949036
0.995941 0.989395 0.949844
0.996101 0.989777 0.950638
0.996307 0.990158 0.951385
0.996574 0.990509 0.952133
0.996864 0.990860 0.952713
0.996941 0.991211 0.953331
0.997284 0.991562 0.954041
0.997543 0.991928 0.954712
0.997696 0.992249 0.955338
0.997696 0.992584 0.955948
0.997986 0.992905 0.956573
0.998123 0.993225 0.957184
0.998123 0.993546 0.957703
0.998169 0.993820 0.958344
0.998169 0.994110 0.958893
0.998169 0.994339 0.959457
0.998474 0.994568 0.960022
0.998657 0.994812 0.960510
0.998917 0.995041 0.961060
0.998917 0.995300 0.961609
0.998917 0.995560 0.962128
0.999115 0.995743 0.962677
0.999756 0.999756 0.975037
