looks/log1.cube
# Phantom look, LogMode=1
# Fitted from PhGetCineImage(UC_VIEW) by camera_bridge/fit_look.py.
# Input domain: ffmpeg's raw linear RGB AFTER the cine's calib matrix.
# Clips: 25628_p1_20260910-184740.cine, 25628_p1_20260910-185121.cine, 25628_p1_20260910-184101.cine
# Residual vs SDK: mean 0.0052, p95 0.0133
LUT_1D_SIZE 256
0.000183 0.000000 0.004669
0.000183 0.000000 0.004669
0.000183 0.000000 0.004669
0.000183 0.000000 0.004669
0.000183 0.000000 0.004669
0.000183 0.000000 0.004669
0.000183 0.000000 0.004669
0.000183 0.000000 0.004669
0.000183 0.000000 0.004669
0.000183 0.000000 0.004669
0.000183 0.000000 0.004669
0.000183 0.000000 0.004669
0.000183 0.000000 0.004669
0.000183 0.000000 0.004669
0.000183 0.000000 0.004669
0.000183 0.000000 0.004669
0.000183 0.000000 0.004669
0.002808 0.000000 0.004669
0.013107 0.000000 0.004669
0.029282 0.000000 0.004669
0.045044 0.000671 0.004669
0.058838 0.007599 0.004669
0.072906 0.021851 0.004669
0.088074 0.037643 0.004669
0.103363 0.051987 0.004669
0.118622 0.066788 0.004669
0.133636 0.082153 0.004669
0.148193 0.097504 0.004669
0.162598 0.112061 0.004669
0.177353 0.126587 0.004669
0.191376 0.141357 0.004669
0.204514 0.155975 0.004669
0.216904 0.170593 0.004669
0.228577 0.184662 0.004669
0.239906 0.198013 0.004669
0.250656 0.210495 0.004669
0.260620 0.222458 0.004669
0.270020 0.233963 0.004669
0.278992 0.244797 0.004669
0.287704 0.255020 0.004669
0.296021 0.264816 0.006668
0.304077 0.274414 0.019302
0.312057 0.283707 0.035248
0.319763 0.292664 0.051163
0.327377 0.301262 0.066925
0.334839 0.309692 0.082138
0.342224 0.317825 0.096542
0.349594 0.325699 0.110367
0.356857 0.333389 0.124146
0.363930 0.340851 0.138565
0.370941 0.347961 0.153595
0.377716 0.355011 0.168472
0.384476 0.361832 0.182648
0.391190 0.368591 0.195953
0.397614 0.375107 0.208466
0.404068 0.381409 0.220291
0.410431 0.387703 0.231522
0.416458 0.393799 0.242081
0.422653 0.399857 0.252228
0.428818 0.405807 0.261948
0.434769 0.411606 0.271164
0.440536 0.417358 0.279724
0.446442 0.423004 0.287979
0.452316 0.428589 0.295547
0.458084 0.434097 0.302811
0.463730 0.439606 0.309601
0.469299 0.444977 0.316345
0.474777 0.450241 0.322678
0.480148 0.455475 0.328781
0.485489 0.460663 0.334793
0.490631 0.465805 0.340500
0.495728 0.470840 0.345779
0.500687 0.475815 0.350983
0.505646 0.480728 0.356064
0.510590 0.485565 0.361145
0.515366 0.490326 0.365982
0.520370 0.495041 0.370605
0.525040 0.499664 0.375031
0.529770 0.504288 0.379639
0.534348 0.508865 0.383957
0.538971 0.513351 0.388397
0.543396 0.517807 0.392929
0.547806 0.522186 0.396973
0.552292 0.526596 0.401382
0.556656 0.530930 0.405502
0.560959 0.535187 0.409576
0.565254 0.539398 0.413597
0.569443 0.543594 0.417755
0.573608 0.547745 0.421997
0.577805 0.551819 0.425919
0.581985 0.555878 0.430084
0.586151 0.559845 0.433945
0.590179 0.563705 0.438004
0.594208 0.567642 0.441788
0.598236 0.571518 0.445618
0.602158 0.575348 0.449371
0.605942 0.579132 0.452972
0.609894 0.582932 0.456802
0.613602 0.586685 0.460449
0.617477 0.590355 0.463974
0.621170 0.594009 0.467560
0.625229 0.597702 0.471191
0.628906 0.601334 0.474686
0.632751 0.604919 0.478256
0.636597 0.608429 0.481689
0.640205 0.611938 0.485016
0.644150 0.615448 0.488434
0.647545 0.618912 0.491791
0.651215 0.622345 0.494995
0.654602 0.625763 0.498291
0.658287 0.629166 0.501465
0.661530 0.632477 0.504684
0.664856 0.635803 0.507904
0.668274 0.639069 0.511047
0.671875 0.642334 0.514267
0.675064 0.645599 0.517426
0.678558 0.648804 0.520584
0.681450 0.652008 0.523560
0.684769 0.655121 0.526627
0.687866 0.658264 0.529694
0.690598 0.661423 0.532730
0.693741 0.664536 0.535797
0.696709 0.667557 0.538757
0.699371 0.670593 0.541794
0.702507 0.673615 0.544662
0.705818 0.676651 0.547501
0.708694 0.679657 0.550339
0.712006 0.682632 0.553238
0.714424 0.685593 0.556091
0.717682 0.688461 0.558823
0.720749 0.691315 0.561691
0.723206 0.694214 0.564377
0.726852 0.697083 0.567215
0.729111 0.699875 0.569901
0.731827 0.702698 0.572693
0.734802 0.705444 0.575470
0.737991 0.708206 0.578171
0.740967 0.711090 0.580811
0.743683 0.713821 0.583542
0.746399 0.716522 0.586136
0.749374 0.719330 0.588821
0.752289 0.722122 0.591415
0.755188 0.724754 0.594055
0.758270 0.727295 0.596634
0.760704 0.729942 0.599167
0.763626 0.732605 0.601791
0.766060 0.735100 0.604294
0.769005 0.737961 0.606750
0.771805 0.740860 0.609146
0.774162 0.743332 0.611633
0.776810 0.745758 0.614075
0.778992 0.748314 0.616486
0.782288 0.750694 0.618881
0.783936 0.753281 0.621246
0.787659 0.755333 0.623672
0.789825 0.757957 0.626007
0.793091 0.760376 0.628357
0.795364 0.763016 0.630722
0.797653 0.765320 0.633080
0.800049 0.768082 0.635406
0.803230 0.769798 0.637680
0.805359 0.772186 0.639938
0.807953 0.774536 0.642212
0.809944 0.776535 0.644501
0.812698 0.778786 0.646713
0.815231 0.781158 0.648972
0.817749 0.783501 0.651199
0.820190 0.785202 0.653381
0.821838 0.787720 0.655640
0.824348 0.790009 0.657883
0.826920 0.792725 0.660034
0.829147 0.794693 0.662201
0.831337 0.796463 0.664352
0.834129 0.798874 0.666443
0.835724 0.800598 0.668541
0.839081 0.803650 0.670670
0.841011 0.805634 0.672882
0.843330 0.807381 0.674942
0.845703 0.810310 0.677078
0.847153 0.812180 0.679138
0.849899 0.813904 0.681229
0.851578 0.816727 0.683197
0.854080 0.818687 0.685333
0.856918 0.821136 0.687332
0.859123 0.822098 0.689316
0.861290 0.824776 0.691345
0.862549 0.826248 0.693314
0.865387 0.828903 0.695343
0.867203 0.831360 0.697372
0.868759 0.833466 0.699326
0.870834 0.834991 0.701324
0.873154 0.836906 0.703247
0.874275 0.839569 0.705200
0.876694 0.840958 0.707138
0.877960 0.842888 0.709076
0.879898 0.845123 0.710922
0.881363 0.846779 0.712814
0.883453 0.849045 0.714737
0.885948 0.851112 0.716629
0.886993 0.852348 0.718475
0.889053 0.854744 0.720413
0.889862 0.857239 0.722214
0.891838 0.858330 0.724136
0.894943 0.860542 0.725967
0.896965 0.862373 0.727798
0.899521 0.864151 0.729630
0.900482 0.865631 0.731445
0.900940 0.867821 0.733337
0.903717 0.869598 0.735107
0.905998 0.871613 0.736938
0.908318 0.873032 0.738831
0.910103 0.875229 0.740570
0.910645 0.877060 0.742279
0.913467 0.878426 0.744019
0.916023 0.881119 0.745728
0.916901 0.882996 0.747574
0.918762 0.882996 0.749199
0.921921 0.885391 0.750885
0.922424 0.887360 0.752731
0.923935 0.889641 0.754456
0.926804 0.891373 0.756035
0.927933 0.892090 0.757767
0.930664 0.894516 0.759583
0.932220 0.896271 0.761276
0.933418 0.897858 0.762802
0.934204 0.899071 0.764343
0.935959 0.900963 0.766220
0.939415 0.903412 0.767487
0.940628 0.905548 0.769318
0.942169 0.906006 0.770966
0.943558 0.907898 0.773148
0.945511 0.909256 0.774323
0.946358 0.911217 0.775940
0.948975 0.912956 0.777321
0.948975 0.914131 0.778130
0.952347 0.915977 0.780579
0.953705 0.918045 0.781998
0.954910 0.919090 0.783646
0.955437 0.920647 0.784142
0.958885 0.922134 0.786743
0.959053 0.923851 0.787201
0.963402 0.925529 0.789200
0.963646 0.927017 0.790710
0.964478 0.928772 0.793106
0.965881 0.930130 0.794678
0.967026 0.931473 0.795959
0.970764 0.932861 0.797668
0.971161 0.934174 0.798111
0.972504 0.935471 0.799911
0.972504 0.936707 0.801788
0.974167 0.937576 0.803452
0.976883 0.939346 0.804703
0.977722 0.939346 0.807175
0.979050 0.940765 0.808441
0.980301 0.940765 0.809937
0.999756 0.999542 0.957603
