looks/log2.cube
# Phantom look, LogMode=2
# Fitted from PhGetCineImage(UC_VIEW) by camera_bridge/fit_look.py.
# Input domain: ffmpeg's raw linear RGB AFTER the cine's calib matrix.
# Clips: 25628_p1_20260910-184740.cine, 25628_p1_20260910-185121.cine, 25628_p1_20260910-184101.cine
# Residual vs SDK: mean 0.0067, p95 0.0188
LUT_1D_SIZE 256
0.000366 0.000000 0.009293
0.000366 0.000000 0.009293
0.000366 0.000000 0.009293
0.000366 0.000000 0.009293
0.000366 0.000000 0.009293
0.000366 0.000000 0.009293
0.000366 0.000000 0.009293
0.000366 0.000000 0.009293
0.000366 0.000000 0.009293
0.000366 0.000000 0.009293
0.000366 0.000000 0.009293
0.000366 0.000000 0.009293
0.000366 0.000000 0.009293
0.000366 0.000000 0.009293
0.000366 0.000000 0.009293
0.000366 0.000000 0.009293
0.000366 0.000000 0.009293
0.005661 0.000000 0.009293
0.026352 0.000000 0.009293
0.058701 0.000000 0.009293
0.090088 0.001358 0.009293
0.116943 0.015305 0.009293
0.142395 0.043839 0.009293
0.168259 0.075363 0.009293
0.193649 0.103867 0.009293
0.217682 0.131760 0.009293
0.238327 0.158279 0.009293
0.255081 0.183975 0.009293
0.270218 0.207626 0.009293
0.285110 0.229050 0.009293
0.298843 0.247314 0.009293
0.310974 0.263077 0.009293
0.322052 0.278107 0.009293
0.332336 0.292145 0.009293
0.342255 0.304871 0.009293
0.351654 0.316254 0.009293
0.360382 0.326874 0.009293
0.368591 0.337006 0.009293
0.376419 0.346512 0.009293
0.384048 0.355453 0.009293
0.391312 0.364044 0.013397
0.398346 0.372421 0.038712
0.405319 0.380554 0.070389
0.412064 0.388382 0.101349
0.418701 0.395889 0.130692
0.425217 0.403259 0.157349
0.431686 0.410370 0.181412
0.438126 0.417252 0.203278
0.444473 0.423965 0.223221
0.450638 0.430481 0.241745
0.456772 0.436691 0.258942
0.462692 0.442856 0.274872
0.468597 0.448822 0.289276
0.474457 0.454712 0.302231
0.480072 0.460403 0.313965
0.485703 0.465912 0.324661
0.491257 0.471420 0.334702
0.496521 0.476730 0.344040
0.501938 0.482025 0.352966
0.507324 0.487213 0.361465
0.512527 0.492279 0.369553
0.517578 0.497314 0.377045
0.522736 0.502258 0.384262
0.527878 0.507126 0.390869
0.532898 0.511948 0.397247
0.537827 0.516769 0.403183
0.542694 0.521454 0.409058
0.547485 0.526047 0.414597
0.552170 0.530624 0.419937
0.556854 0.535156 0.425186
0.561325 0.539642 0.430176
0.565796 0.544037 0.434784
0.570114 0.548386 0.439331
0.574448 0.552673 0.443787
0.578766 0.556900 0.448212
0.582947 0.561066 0.452438
0.587311 0.565201 0.456482
0.591400 0.569214 0.460342
0.595520 0.573257 0.464386
0.599533 0.577255 0.468155
0.603592 0.581177 0.472015
0.607468 0.585083 0.475983
0.611298 0.588898 0.479492
0.615219 0.592758 0.483360
0.619019 0.596558 0.486954
0.622772 0.600266 0.490509
0.626526 0.603958 0.494034
0.630173 0.607620 0.497665
0.633820 0.611252 0.501358
0.637482 0.614792 0.504807
0.641144 0.618332 0.508438
0.644791 0.621796 0.511810
0.648285 0.625168 0.515366
0.651825 0.628616 0.518677
0.655334 0.632004 0.522003
0.658768 0.635345 0.525299
0.662079 0.638657 0.528442
0.665527 0.641968 0.531784
0.668762 0.645248 0.534958
0.672134 0.648453 0.538055
0.675385 0.651657 0.541183
0.678925 0.654861 0.544342
0.682129 0.658051 0.547394
0.685486 0.661163 0.550522
0.688843 0.664246 0.553528
0.692001 0.667297 0.556427
0.695435 0.670364 0.559418
0.698425 0.673393 0.562347
0.701614 0.676392 0.565140
0.704559 0.679382 0.568024
0.707779 0.682358 0.570801
0.710648 0.685257 0.573608
0.713547 0.688156 0.576431
0.716522 0.691010 0.579163
0.719673 0.693863 0.581985
0.722458 0.696701 0.584732
0.725479 0.699524 0.587509
0.728027 0.702316 0.590103
0.730942 0.705048 0.592789
0.733612 0.707794 0.595474
0.736038 0.710541 0.598129
0.738739 0.713257 0.600815
0.741364 0.715912 0.603394
0.743698 0.718552 0.606049
0.746437 0.721191 0.608551
0.749329 0.723846 0.611038
0.751831 0.726471 0.613510
0.754723 0.729065 0.616043
0.756828 0.731644 0.618530
0.759682 0.734161 0.620911
0.762383 0.736664 0.623413
0.764511 0.739182 0.625748
0.767700 0.741699 0.628250
0.769669 0.744125 0.630585
0.772064 0.746597 0.633026
0.774658 0.748993 0.635452
0.777451 0.751404 0.637817
0.780045 0.753937 0.640106
0.782410 0.756317 0.642517
0.784775 0.758682 0.644775
0.787399 0.761124 0.647110
0.789917 0.763550 0.649384
0.792450 0.765869 0.651688
0.795151 0.768082 0.653946
0.797264 0.770416 0.656158
0.799835 0.772736 0.658432
0.801956 0.774910 0.660629
0.804527 0.777405 0.662781
0.806992 0.779968 0.664871
0.809052 0.782074 0.667038
0.811356 0.784241 0.669174
0.813217 0.786461 0.671265
0.816116 0.788528 0.673370
0.817574 0.790802 0.675430
0.820816 0.792610 0.677567
0.822678 0.794861 0.679596
0.825577 0.796997 0.681656
0.827560 0.799301 0.683731
0.829559 0.801338 0.685776
0.831635 0.803772 0.687805
0.834435 0.805206 0.689804
0.836258 0.807327 0.691772
0.838547 0.809387 0.693756
0.840324 0.811104 0.695755
0.842667 0.813072 0.697693
0.844910 0.815140 0.699677
0.847137 0.817177 0.701614
0.849258 0.818649 0.703522
0.850670 0.820847 0.705490
0.852867 0.822861 0.707458
0.855118 0.825256 0.709320
0.857056 0.826935 0.711227
0.858978 0.828522 0.713104
0.861450 0.830627 0.714935
0.862793 0.832123 0.716751
0.865761 0.834793 0.718613
0.867439 0.836533 0.720551
0.869461 0.838066 0.722351
0.871521 0.840584 0.724228
0.872803 0.842247 0.726013
0.875168 0.843735 0.727844
0.876678 0.846207 0.729553
0.878860 0.847939 0.731430
0.881348 0.850060 0.733170
0.883263 0.850937 0.734909
0.885147 0.853249 0.736679
0.886261 0.854530 0.738403
0.888718 0.856842 0.740173
0.890289 0.858963 0.741943
0.891678 0.860825 0.743652
0.893494 0.862167 0.745407
0.895508 0.863831 0.747070
0.896477 0.866150 0.748779
0.898636 0.867386 0.750488
0.899750 0.869034 0.752182
0.901398 0.871025 0.753784
0.902664 0.872444 0.755432
0.904480 0.874451 0.757111
0.906693 0.876244 0.758774
0.907616 0.877342 0.760376
0.909393 0.879433 0.762070
0.910126 0.881584 0.763657
0.911835 0.882576 0.765335
0.914566 0.884506 0.766922
0.916313 0.886093 0.768524
0.918579 0.887642 0.770111
0.919388 0.888962 0.771698
0.919830 0.890846 0.773376
0.922165 0.892426 0.774918
0.924202 0.894150 0.776535
0.926079 0.895424 0.778168
0.927780 0.897301 0.779678
0.928177 0.898956 0.781174
0.930588 0.900124 0.782700
0.932953 0.902481 0.784180
0.933548 0.904114 0.785797
0.935364 0.904114 0.787224
0.938156 0.906189 0.788696
0.938538 0.907944 0.790314
0.939484 0.909927 0.791824
0.942352 0.911430 0.793190
0.943138 0.912079 0.794724
0.945297 0.914169 0.796310
0.947113 0.915726 0.797791
0.947975 0.917084 0.799118
0.948807 0.918167 0.800461
0.950150 0.919815 0.802094
0.953400 0.921936 0.803207
0.954498 0.923798 0.804825
0.955826 0.924225 0.806305
0.956909 0.925865 0.808136
0.958588 0.927063 0.809196
0.959152 0.928734 0.810593
0.961731 0.930298 0.811790
0.961731 0.931328 0.812477
0.964706 0.932945 0.814636
0.965797 0.934746 0.815872
0.966362 0.935669 0.817329
0.967094 0.937004 0.817734
0.970139 0.938309 0.820038
0.970490 0.939812 0.820374
0.973862 0.941292 0.822144
0.973946 0.942566 0.823486
0.974915 0.944122 0.825592
0.975571 0.945282 0.826950
0.977051 0.946442 0.828079
0.979675 0.947678 0.829590
0.979675 0.948807 0.829987
0.980713 0.949951 0.831558
0.980713 0.951035 0.833153
0.982246 0.951813 0.834610
0.985336 0.953293 0.835693
0.985336 0.953339 0.837906
0.986343 0.954636 0.838989
0.987503 0.954636 0.840286
0.999756 0.999756 0.967941
